X:488
T:Konvulsionslaten
Z:Jack Campin, http://www.campin.me.uk/
F:Jack Campin's Nine-Note Tunebook
% last edit 03-02-2013
C:Anders Norudde 
M:C|
L:1/8
Q:1/2=85
K:DDor
D-|DEFD  E2  ED-|DEFD  E2  ED-|DEFG  A2 GF |EFE2 [1 D3 :|\
                                                 [2 D4 ||
   cAcA  c2  AB-|BGBG  B2  Gc-|cAcd- dc BA-|ABcd-   dddd|
   dc B A2 F2 c |cB A G2 E2 E |DEFG  A2 GF |EFE2 [1 D4 :|\
                                                 [2 D3 |]


% == Slovakian songs and dance tunes ========================================

